X: 32257
T: Picc Line, The
R: jig
M: 6/8
K: Amajor
|:c2a fec|BcB BAF|AAA BAB|cBe cBA|
c2a fec|BcB BAF|A2A FEF|1 A2A A2B:|2 A2A A3||
|:F3 EFA|Bce cBA|BBB BAB|cBe cBA|F3 EFA|
Bce cBA|1 BBB AcB|A3 A3:|2 cea fec|BcB A3||

